src/layouts/common/icon/1.svg

<svg height="20" viewBox="0 0 20 20" width="20" xmlns="http://www.w3.org/2000/svg"><path d="m62.6846784 23.3992881c-.5869075-.5323841-1.4820495-.5323841-2.068957 0l-8.366117 7.943969c-.31177.2864649-.3345426.7706227-.0510376 1.0850866.283505.314464.7674259.3418122 1.0845557.0612924l.1330318-.1263082v8.2911965c-.0005099.4097085.1618889.8028111.4514165 1.0926991.2895277.289888.682428.4527754 1.0921369.4527754h4.4918652v-4.6469891c-.0003826-.2885771.114019-.565459.317984-.7696041.2039649-.2041451.4807456-.3187912.769323-.3186634h2.1136212c.2885774-.0001278.5653581.1145183.769323.3186634s.3183666.481027.317984.7696041v4.6469891h4.5984828c.4097921 0 .8028158-.1627036 1.0924474-.4526055.2896316-.2899018.4520962-.6830773.4515862-1.092869v-8.1898618c.3429052.3102475.8294078.2867148 1.1146818-.0312169.1372078-.1519428.2084236-.3521756.1979755-.5566345s-.101704-.3963892-.2536855-.5335541l-8.2566179-7.9434887z" fill="#bcbcbc" transform="matrix(-1 0 0 1 71.195988 -23)"/></svg>

<?xml version="1.0" encoding="UTF-8"?>
<svg width="20px" height="20px" viewBox="0 0 20 20" version="1.1" xmlns="http://www.w3.org/2000/svg" xmlns:xlink="http://www.w3.org/1999/xlink">
    <!-- Generator: Sketch 61.2 (89653) - https://sketch.com -->
    <title>路径</title>
    <desc>Created with Sketch.</desc>
    <g id="5.12" stroke="none" stroke-width="1" fill="none" fill-rule="evenodd">
        <g id="我的" transform="translate(-52.000000, -758.000000)" fill="#BCBCBC" fill-rule="nonzero">
            <g id="编组-2" transform="translate(0.000000, 735.000000)">
                <path d="M62.6846784,23.3992881 C62.0977709,22.866904 61.2026289,22.866904 60.6157214,23.3992881 L52.2496044,31.3432571 C51.9378344,31.629722 51.9150618,32.1138798 52.1985668,32.4283437 C52.4820718,32.7428077 52.9659927,32.7701559 53.2831225,32.4896361 L53.4161543,32.3633279 L53.4161543,40.6545244 C53.4156444,41.0642329 53.5780432,41.4573355 53.8675708,41.7472235 C54.1570985,42.0371115 54.5499988,42.1999989 54.9597077,42.1999989 L59.4515729,42.1999989 L59.4515729,37.5530098 C59.4511903,37.2644327 59.5655919,36.9875508 59.7695569,36.7834057 C59.9735218,36.5792606 60.2503025,36.4646145 60.5388799,36.4647423 L62.6525011,36.4647423 C62.9410785,36.4646145 63.2178592,36.5792606 63.4218241,36.7834057 C63.625789,36.9875508 63.7401907,37.2644327 63.7398081,37.5530098 L63.7398081,42.1999989 L68.3382909,42.1999989 C68.748083,42.1999989 69.1411067,42.0372953 69.4307383,41.7473934 C69.7203699,41.4574916 69.8828345,41.0643161 69.8823245,40.6545244 L69.8823245,32.4646626 C70.2252297,32.7749101 70.7117323,32.7513774 70.9970063,32.4334457 C71.1342141,32.2815029 71.2054299,32.0812701 71.1949818,31.8768112 C71.1845337,31.6723523 71.0932778,31.480422 70.9412963,31.3432571 L62.6846784,23.3997684 L62.6846784,23.3992881 Z" id="路径" transform="translate(61.597994, 32.599999) scale(-1, 1) translate(-61.597994, -32.599999) "></path>
            </g>
        </g>
    </g>
</svg>
